!!!OTL: NUN REUEN MICH DIE GUTEN SCHUCH
!!!ARE: Europa, Mitteleuropa, Deutschland
!!!SCT: E0945
!!!YEM: Copyright 1995, estate of Helmut Schaffrath.
**kern
*ICvox
*Ivox
*M4/4
*k[b-]
*F:
{4f
=1
2a
2a
=2
2b-
2b-
=3
2cc
2cc
=4
2cc
4r}
{4cc
=5
2ee-
2dd
=6
2cc
2b-
=7
2cc
2cc
=8
2.f}
{4f
=9
2a
2a
=10
2b-
2b-
=11
2cc
2cc
=12
2cc
4r}
{4cc
=13
2ee-
2dd
=14
2cc
2b-
=15
2cc
2cc
=16
2.f}
==
!!!AGN: Tanz - Lied, Reigen
!!!ONB: ESAC (Essen Associative Code) Database: ERK2
!!!AMT: simple quadruple
!!!AIN: vox
!!!EED: Helmut Schaffrath
!!!EEV: 1.0
*-
